X:1
T:Love not me for comely grace - Wilbye
T:#
%%score 1 2 3
L:1/8
Q:1/4=126
M:4/4
K:C
V:1 treble nm="Soprano I"
V:2 treble nm="Alto" snm="A"
V:3 treble-8 nm="Tenor" snm="T"
V:1
"^Love not me from comely grace""^John Wilbye\n (1574-1638)"!mf! A3 B c2 d2 | B2 B2 A4 | %2
w: Love not me for|come- ly grace,|
 G2 G2 c2 B2 | A2 A2 B4 |[M:4/4] G2 A2 Bc d2- | d2 ^c2 d4- | d4 z4 | e6 A2 | ^G2 c2 B2 B2 | %9
w: For my pleas- ing|eye or face;|Nor for a- ny out\-|* ward part,||No, nor|for my con- stant|
!>(! A8-!>)! | A8 | z2!p! A2 c3 d | e4 G3 A | B4 D3 E | ^F2 F2 D3 E | (^FG) A2 ^G2 A2 | %16
w: heart:||For these may|fail, these may|fail, these may|fail, for these may|fail, * may fail, or|
 (B2 c2) B4 | A6!pp! G2 | A3 G =F2 G2 | G4 G4 |!f! G2 G4 G2 | ^F4 E4 | E6 ^F2 | E6 e2 | %24
w: turn * to|ill; So|thou and I shall|se- ver:|Keep, there- fore,|a true|wo- man's|eye, Keep,|
 B2 d4 (cB) | (c2 BA) (^GABA | ^G^F) G2 A4- | A4 z4 | z4!p! A4 | E2 G4 (=FE) | (F2 ED) (^C2 B,2) | %31
w: there- fore, a *|true * * wo\- * * *|* * man's eye,||keep,|there- fore, a *|true * * wo\- *|
 ^C4 D4 | E8 | ^F2 G2 A4 | B8 | A4 A4 | A8 | z4 z2!f! A2 | (B^c d4) c2 | B2 A2 B2 B2 | A4 z4 | %41
w: man's eye,|keep,|there- fore, a|true|wo- man's|eye,|And|love * * me|still, but know not|why,|
 A2 (d2 ^c2) (Bc) | d2 A2 A2 ^G2 | A4 z2 B2 | (^cd e4) d2 | ^c2 B2 A2 A2 | ^G8 |!p! ^F2 (E3 F ^G2 | %48
w: and love * me *|still, but know not|why, and|love * * me|still, but know not|why.|but know * *|
 A2) ^F2 B4- | B4 z2 ^F2 | (^GA B4) A2 | ^G2 (^FE) F2 F2 | E8- | E4 z2 B,2 | (^CD E4) D2 | %55
w: * not why,|* and|love * * me|still, but * know not|why,|* and|love * * me|
 ^C2 (B,A,) C2 B,2 | A,2!f! ^F2 E2 D2 | ^C4 E4 | ^F4 ^G4 | A4 ^C4 | D4 E4 | ^F4 F4 | E8- | E8 | %64
w: still, but * know not|why; So hast thou|the same|rea- son|still To|doat up-|on me|e\-||
 E4 z2!p! ^c2 | B2 A2 ^G2 ^c2 |[Q:1/4=124] B2[Q:1/4=122] B4!f! B2- | %67
w: ver, to|doat u- pon me|e- ver, to|
[Q:1/4=120] B2[Q:1/4=118] ^F3[Q:1/4=117] ^G[Q:1/4=116] A2 |[Q:1/4=115] ^G4[Q:1/4=113] (A4- | %69
w: * doat u- pon|me e\-|
[Q:1/4=111] A4[Q:1/4=108] ^G4) |[Q:1/4=108] A16 |] %71
w: |ver.|
V:2
!mf! E3 E A2 F2 | E2 E2 E4 | C2 D2 (E^F) G2 | G2 ^F2 G4 |[M:4/4] D2 D2 G2 ^F2 | E2 E2 ^F4 | %6
w: Love not me for|come- ly grace,|For my pleas\- * ing|eye or face;|Nor for a- ny|out- ward part,|
 A6 (G^F) | E6 E2 | E4 E4 | E4!p! ^F4- | F4 E2 D2 | E8 | z2 A2 E3 ^F | G4 B,3 C | D4 ^F,3 G, | %15
w: No, nor *|for my|con- stant|heart: For|* these may|fail,|for these may|fail, these may|fail, these may|
 A,2 A,2 B,2 E2 | ^G,2 A,2 B,2 B,2 | C6!pp! E2 | D2 C2 F2 E2 | (D2 E2 D4) | E8 | z8 | %22
w: fail, for these may|fail, or turn to|ill; So|thou and I shall|se\- * *|ver:||
!f! E4 B,2 D2- | D2 (CB,) (C2 B,A,) | (^G,2 ^F,2) G,4 | A,2 E2 E2 =F2 | E2 E2 C2 ^F2- | %27
w: Keep, there- fore,|* a * true * *|wo\- * man's|eye, a wo- man's|eye, keep, there- fore|
 F2!p! (ED) (E2 DC) | D6 D2 | E2 D2 E2 E2 | A,2 A2 E2 G2- | G2 (=FE) (F2 ED) | (^C2 B,2) C4 | %33
w: * a * true * *|wo- man's|eye, a wo- man's|eye, keep, there- fore,|* a * true * *|wo\- * man's|
 (D3 E ^F2) F2 | E2 D2 G4- | G2 ^F2 E2 E2 | ^F6!f! E2 | (DE ^F4) E2 | (^F3 ^G A4) | ^G2 A4 G2 | %40
w: eye, * * keep,|there- fore, a|* true wo- man's|eye, And|love * * me|still, * *|but know not|
 A4 z2 E2 | (^F^G A4) G2 | ^F2 E2 (D4 | ^C4 B,2) B,2 | A,2 A2 ^G2 (^FG) | A2 E2 E2 ^D2 | E8 | %47
w: why, and|love * * me|still, but know|* * not|why, and love me *|still, but know not|why,|
 z4 z2!p! E2 | (^F=G A4) ^G2 | ^F2 E2 F2 F2 | E8 | z8 | z4 z2 B,2 | (^CD E4) D2 | %54
w: and|love * * me|still, but know not|why,||and|love * * me|
 ^C2 (B,A,) B,2 B,2 | A,4 ^G,4 | A,4 z4 | z2!f! ^C2 C2 B,2 | A,2 ^F2 E2 D2 | ^C2 A,2 A,2 G,2 | %60
w: still, but * know not,|know not|why;|So hast thou|the same rea- son|still, so hast thou|
 ^F,2 D2 ^C2 B,2 | A,6 (B,A,) | ^G,6 (^CB,) | B,2 A,2 ^G,2 ^C2 | B,2 B,2!p! E4 | E8- | %66
w: the same rea- son|still, To *|doat, to *|doat u- pon me|e- ver, to|doat|
 E6!f! (^G,A,) | B,6 A,2 | E8- | E8 | E16 |] %71
w: * u\- *|pon me|e\-||ver.|
V:3
!mf! c3 B A2 A2 | A2 ^G2 A4 | e2 d2 c2 d2 | d2 d2 d4 |[M:4/4][K:treble-8] B2 A2 G2 A2 | A2 A2 A4- | %6
w: Love not me for|come- ly grace,|For my pleas- ing|eye or face;|Nor for a- ny|out- ward part,|
 A4 c4- | c2 (BA) B2 c2 | B2 A2 B4 |!p! E4 A2 A2 | A8- | A4 z2 A2 | c3 d e4- | e2 G3 A B2- | %14
w: * No,|* nor * for my|con- stant heart:|For these may|fail,|* for|these may fail,|* these may fail,|
 B2 D3 E ^F2 | D2 d4 c2 | B2 A2 A2 ^G2 | A6!pp! E2 | F3 G A2 c2 | (B2 c4 B2) | c6!f! B2 | %21
w: * these may fail,|for these may|fail, or turn to|ill; So|thou and I shall|se\- * *|ver: Keep,|
 d2 ^F2 ^G4 | A4 (B2 A2) | B4 A4 | z4 B2 (e2- | e2 dc) (Bcdc | BA) B2 A4- | A2!p! c4 (BA) | %28
w: there- fore, a|true wo\- *|man's eye,|a true|* * * wo\- * * *|* * man's eye,|* keep, there\- *|
 B2 (AG) A4 | A2 B2 A4 | z8 | z8 | z8 | z2 d2 A2 c2- | c2 (BA) (B^cdB) | ^c2 d4 c2 | d6!f! A2 | %37
w: fore, a * true|wo- man's eye,||||keep, there- fore,|* keep * a * * *|true wo- man's|eye, And|
 (B^c d4) c2 | B4 A4 | e4 e4 | A2 ^c2 c2 B2 | A4 z4 | z4 z2 B2 | (^cd e4) d2 | ^c4 B4 | %45
w: love * * me|still, but|know not|why, but know not|why,|and|love * * me|still, but|
 (A2 ^G2 ^F2) F2 | E6!p! e2 | d2 (^cB) (cd) e2 | ^d4 e4 | ^d2 (e4 d2) | e2 B2 ^c2 d2 | %51
w: know * * not|why, and|love me, * love * me|still, but|know not *|why, and love me|
 e2 (=d^c) d2 d2 | ^c2 B4 B2 | (BA) A2 (^G^F) G2 | A4 z2 B2 | (^cd e4) d2 | ^c2 (BA) B2 B2 | %57
w: still, but * know not|why, love me|still, * but know * not|why, and|love * * me|still, but * know not|
 A2!f! A2 A2 G2 | ^F2 d2 ^c2 B2 | A2 ^F2 F2 E2 | D2 B2 A2 G2 | ^F6 (d^c) | B6 A2 | ^G2 ^c2 B2 A2 | %64
w: why; So hast thou|the same rea- son|still, so hast thou|the same rea- son|still, To *|doat, to|doat u- pon me|
 ^G2 G4!p! A2 | B2 ^c2 B2 A2 | ^G2 G4!f! (B^c) | d8- | d2 d2 ^c2 (BA) | B8 | ^c16 |] %71
w: e- ver, to|doat u- pon me|e- ver, to *|doat|* u- pon me *|e-|ver.|

